icon/pk/phone-missed.svg

<svg viewBox="0 0 48 48" fill="none" xmlns="http://www.w3.org/2000/svg" height="1em" width="1em">
  <path d="M15.9961 8.68583C16.7227 8.68583 17.3921 9.07985 17.7448 9.71509L20.1912 14.1219C20.5115 14.6989 20.5266 15.3968 20.2314 15.9871L17.8746 20.7008C17.8746 20.7008 18.5576 24.2122 21.416 27.0706C24.2744 29.929 27.7741 30.6002 27.7741 30.6002L32.487 28.2438C33.0777 27.9484 33.7761 27.9637 34.3533 28.2846L38.7726 30.7416C39.4072 31.0945 39.8008 31.7635 39.8008 32.4896L39.8008 37.5631C39.8008 40.1468 37.4009 42.0129 34.9528 41.1868C29.9249 39.4903 22.1202 36.2601 17.1734 31.3132C12.2265 26.3664 8.99631 18.5617 7.29977 13.5338C6.47375 11.0857 8.33984 8.68583 10.9235 8.68583L15.9961 8.68583Z" fill="#2F88FF" stroke="black" stroke-width="4" stroke-linejoin="round"/>
  <rect opacity="0.01" x="28" y="7" width="13" height="13" fill="white"/>
  <path d="M39 9L30 18" stroke="black" stroke-width="4" stroke-linecap="round" stroke-linejoin="round"/>
  <path d="M30 9L39 18" stroke="black" stroke-width="4" stroke-linecap="round" stroke-linejoin="round"/>
</svg>

<svg width="48" height="48" fill="none" xmlns="http://www.w3.org/2000/svg"><path d="M15.996 8.686a2 2 0 0 1 1.749 1.03l2.446 4.406a2 2 0 0 1 .04 1.865l-2.356 4.714s.683 3.511 3.541 6.37c2.858 2.858 6.358 3.53 6.358 3.53l4.713-2.357a2 2 0 0 1 1.866.04l4.42 2.458A2 2 0 0 1 39.8 32.49v5.073c0 2.584-2.4 4.45-4.848 3.624-5.028-1.697-12.833-4.927-17.78-9.874-4.946-4.947-8.177-12.751-9.873-17.78-.826-2.447 1.04-4.847 3.624-4.847h5.072Z" fill="#2F88FF" stroke="#000" stroke-width="4" stroke-linejoin="round"/><path opacity=".01" fill="#fff" d="M28 7h13v13H28z"/><path d="m39 9-9 9M30 9l9 9" stroke="#000" stroke-width="4" stroke-linecap="round" stroke-linejoin="round"/></svg>
